16x16/apps/aseprite.svg

<svg xmlns="http://www.w3.org/2000/svg" width="16" height="16" version="1"><path style="fill:#f4f4f7" d="M2 2h12v13H2z"/><path style="fill:#5c3e52" d="M3 1v1h10V1zm10 1v1h1V2zm1 1v11h1V3zm0 11h-1v1h1zm-1 1H3v1h10zM3 15v-1H2v1zm-1-1V3H1v11zM2 3h1V2H2zm3 2v4h1V5zm5 0v4h1V5z"/><path style="fill:#6d8292" d="M2 12v2h1v1h10v-1h1v-2h-1v1H3v-1z"/><path style="fill:#825873" d="M2 1v1h1V1zm0 1H1v1h1zm11-1v1h1V1zm1 1v1h1V2zM1 14v1h1v-1zm1 1v1h1v-1zm12-1v1h1v-1zm0 1h-1v1h1z"/></svg>

<svg xmlns="http://www.w3.org/2000/svg" width="16" height="16" version="1">
 <path style="fill:#f4f4f7" d="M 2,2 H 14 V 15 H 2 Z"/>
 <path style="fill:#5c3e52" d="M 3,1 V 2 H 13 V 1 Z M 13,2 V 3 H 14 V 2 Z M 14,3 V 14 H 15 V 3 Z M 14,14 H 13 V 15 H 14 Z M 13,15 H 3 V 16 H 13 Z M 3,15 V 14 H 2 V 15 Z M 2,14 V 3 H 1 V 14 Z M 2,3 H 3 V 2 H 2 Z M 5,5 V 9 H 6 V 5 Z M 10,5 V 9 H 11 V 5 Z"/>
 <path style="fill:#6d8292" d="M 2,12 V 14 H 3 V 15 H 13 V 14 H 14 V 12 H 13 V 13 H 3 V 12 Z"/>
 <path style="fill:#825873" d="M 2,1 V 2 H 3 V 1 Z M 2,2 H 1 V 3 H 2 Z M 13,1 V 2 H 14 V 1 Z M 14,2 V 3 H 15 V 2 Z M 1,14 V 15 H 2 V 14 Z M 2,15 V 16 H 3 V 15 Z M 14,14 V 15 H 15 V 14 Z M 14,15 H 13 V 16 H 14 Z"/>
</svg>
